src/main/resources/icons/SpringWebflowIcons/resources/icons/SpringWebFlowFile.svg

<svg xmlns="http://www.w3.org/2000/svg" width="16" height="16" viewBox="0 0 16 16">
  <g fill="none" fill-rule="evenodd">
    <path fill="#F26522" fill-opacity=".7" d="M8.99934986,15.9998778 L1.0001,15.9997 L1.0001,8.9997 L7.99985917,8.9997 C7.37203385,9.83541192 7,10.8742594 7,12 C7,13.6355259 7.78527295,15.0876415 8.99934986,15.9998778 Z"/>
    <polygon fill="#9AA7B0" fill-opacity=".8" points="7 1 3 5 7 5"/>
    <polygon fill="#9AA7B0" fill-opacity=".8" points="8 1 8 5 8 6 7 6 3 6 3 8 13 8 13 1"/>
    <polygon fill="#231F20" fill-opacity=".7" points="3 12.991 3 12.009 6 10 6 11.045 3.753 12.491 6 13.946 6 15"/>
    <path fill="#40B6E0" d="M12.5810906,13.8467754 L15.0995511,11.3283149 L14.4710117,10.6997755 L11.9525512,13.218236 L11.0171576,12.2828424 L11.0171576,14.7828424 L13.5171576,14.7828424 L12.5810906,13.8467754 Z M14.7852814,14.7852814 C13.2231842,16.3473785 10.6905243,16.3473785 9.12842712,14.7852814 C7.56632996,13.2231842 7.56632996,10.6905243 9.12842712,9.12842712 C10.6905243,7.56632996 13.2231842,7.56632996 14.7852814,9.12842712 C16.3473785,10.6905243 16.3473785,13.2231842 14.7852814,14.7852814 Z M11.9283149,10.7283149 L12.917767,11.717767 L12.917767,9.217767 L10.417767,9.217767 L11.2997755,10.0997755 L8.81415744,12.5853936 L9.44269681,13.213933 L11.9283149,10.7283149 Z"/>
  </g>
</svg>

<svg xmlns="http://www.w3.org/2000/svg" width="16" height="16" viewBox="0 0 16 16"><rect id="frame" width="16" height="16" fill="none"/><g fill="none" fill-rule="evenodd"><path fill="#F26522" fill-opacity=".7" d="M9 16H1V9h7c-.628.835-1 1.874-1 3 0 1.636.785 3.088 2 4z"/><path fill="#9AA7B0" fill-opacity=".8" d="M7 1L3 5h4z"/><path fill="#9AA7B0" fill-opacity=".8" d="M8 1v5H3v2h10V1z"/><path fill="#231F20" fill-opacity=".7" d="M3 12.991v-.982L6 10v1.045l-2.247 1.446L6 13.946V15z"/><path fill="#40B6E0" d="M12.581 13.847l2.519-2.519-.629-.628-2.518 2.518-.936-.935v2.5h2.5l-.936-.936zm2.204.938a4 4 0 1 1-5.657-5.657 4 4 0 0 1 5.657 5.657zm-2.857-4.057l.99.99v-2.5h-2.5l.882.882-2.486 2.485.629.629 2.485-2.486z"/></g></svg>
